X: 2
T: Humours Of Castlelyons, The
M: 6/8
L: 1/8
R: jig
K: Gmaj
|: D/E/ |\
G2 A BAG | dBG B/c/dB | A2 B cBA | ecA BGE |
G3 BGG | dGG BAG | A3 cBA | BGE E2 :| 
|: e/f/ |\
g2 g gdB | g/a/ba gdB | A2 B cBA | ecA AB/c/d |
[1 gbg gdB | gba gdB | A2 B cBA | BGE E2 :|
[2 gba gfa | bg/f/e dB/A/G | A3 c>BA | BGE E2 ||
